assets/Subtract Square/SVG/ic_fluent_subtract_square_24_filled.svg

<svg width="24" height="24" viewBox="0 0 24 24" fill="none" xmlns="http://www.w3.org/2000/svg">
<path d="M3,6.25c0,-1.795 1.455,-3.25 3.25,-3.25l11.5,0c1.795,0 3.25,1.455 3.25,3.25l0,11.5c0,1.795 -1.455,3.25 -3.25,3.25l-11.5,0c-1.795,0 -3.25,-1.455 -3.25,-3.25l0,-11.5Zm13.25,5l-8.5,0c-0.414,0 -0.75,0.336 -0.75,0.75c0,0.414 0.336,0.75 0.75,0.75l8.5,0c0.414,0 0.75,-0.336 0.75,-0.75c0,-0.414 -0.336,-0.75 -0.75,-0.75Z" fill="#212121"/>
</svg>

<svg width="24" height="24" viewBox="0 0 24 24" fill="none" xmlns="http://www.w3.org/2000/svg">
<path d="M3 6.25C3 4.455 4.455 3 6.25 3H17.75C19.545 3 21 4.455 21 6.25V17.75C21 19.545 19.545 21 17.75 21H6.25C4.455 21 3 19.545 3 17.75V6.25ZM16.25 11.25H7.75C7.336 11.25 7 11.586 7 12C7 12.414 7.336 12.75 7.75 12.75H16.25C16.664 12.75 17 12.414 17 12C17 11.586 16.664 11.25 16.25 11.25Z" fill="#212121"/>
</svg>
